!!!OTL: Maigaodi
!!!ARE: Asia, China, Shanxi, Qitai
!! I, 335(2)
!!!SCT: C1442
!!!YEM: Copyright 1995, estate of Helmut Schaffrath.
**kern
*ICvox
*Ivox
*M2/4
*k[b-e-a-]
*E-:
{8cc
16cc
16dd
8g
16g
16b-
=1
8cc
16cc
16dd
8g
8r
=2
8cc
8cc
16g
16b-
16g
16b-
=3
8cc
4.r}
=4
{4r
8cc
8cc
=5
8.b-
16cc
8dd
8ff
=6
16cc
16dd
16cc
16b-
8g
8r}
=7
{8g
16g
16cc
8.e-
16f
=8
8g
16g
16cc
8.e-
16f
=9
8g
8g
8r
16cc
16cc
=10
8g
8g}
{8r
8gg
=11
8ee-
8dd
16cc
16dd
16cc
16g
=12
32bn
16.bn
32bn
16.bn
32bn
16.bn
32bn
16.bn}
=13
{4.r
8dd
=14
4cc
16g
16b-
16g
16f
=15
16g
8g
16c
4c}
==
!!!AGN: Wuge, Yangge, Jinzhong yangge
!!!ONB: ESAC (Essen Associative Code) Database: HUANG
!!!AMT: simple duple
!!!AIN: vox
!!!EED: Helmut Schaffrath
!!!EEV: 1.0
*-
